symbols/web/local_florist/materialsymbolsrounded/local_florist_wght200grad200_20px.svg

<svg xmlns="http://www.w3.org/2000/svg" height="20" width="20"><path d="M10 17.667q0-2.229 1.385-4.125 1.386-1.896 3.365-2.73.5-.166.958-.031.459.136.75.427.292.292.417.75.125.459-.021.959-.833 1.979-2.729 3.364-1.896 1.386-4.125 1.386Zm2.167-2.209q1.083-.229 1.906-1.041.823-.813 1.052-1.917-1.104.229-1.927 1.052-.823.823-1.031 1.906ZM10 17.667q0-2.229-1.385-4.125-1.386-1.896-3.365-2.73-.521-.166-.969-.031-.448.136-.739.427-.292.271-.407.74-.114.469.011.969.833 1.979 2.729 3.364Q7.771 17.667 10 17.667Zm-2.146-2.209q-1.083-.229-1.906-1.041-.823-.813-1.052-1.917 1.083.229 1.906 1.052.823.823 1.052 1.906Zm4.521-6.604q.292 0 .531-.229.24-.229.24-.542 0-.291-.177-.479-.177-.187-.386-.208l-.541-.021q-.063.208-.188.417-.125.208-.292.375l.313.416q.125.125.24.198.114.073.26.073Zm-.313-2.812.521-.021q.209-.042.386-.208.177-.167.177-.48 0-.312-.24-.541-.239-.23-.531-.23-.146 0-.281.063-.136.063-.261.208l-.25.417q.188.167.292.385.104.219.187.407ZM9.521 4.604q.125-.021.239-.031.115-.011.24-.011.125 0 .24.011.114.01.239.031l.292-.792q.125-.208-.188-.416-.312-.208-.583-.208-.271 0-.583.208-.313.208-.188.416ZM10 7.396q.292 0 .49-.198t.198-.49q0-.291-.198-.489T10 6.021q-.292 0-.49.198t-.198.489q0 .292.198.49t.49.198Zm0 2.833q.271 0 .583-.239.313-.24.188-.469l-.292-.709q-.125.021-.239.032-.115.01-.24.01-.125 0-.24-.01-.114-.011-.239-.032l-.292.709q-.125.291.188.5.312.208.583.208ZM7.917 6.042q.062-.209.198-.427.135-.219.323-.365l-.313-.417q-.125-.125-.24-.198-.114-.073-.26-.073-.292 0-.531.23-.24.229-.24.541 0 .313.177.48.177.166.386.208Zm-.271 2.812q.146 0 .25-.083.104-.083.25-.209l.271-.395Q8.229 8 8.125 7.792q-.104-.209-.187-.417l-.521.021q-.209 0-.396.187-.188.188-.188.479.021.292.261.542.239.25.552.25ZM10 11.688q-.688 0-1.271-.417t-.791-.959h-.292q-.938 0-1.604-.645-.667-.646-.667-1.584 0-.333.125-.698.125-.364.354-.677-.187-.312-.323-.687-.135-.375-.135-.688 0-.937.656-1.583.656-.646 1.594-.646h.292q.208-.542.791-.958.583-.417 1.271-.417t1.271.417q.583.416.791.958h.292q.938 0 1.594.646.656.646.656 1.583 0 .313-.125.688-.125.375-.333.687.187.292.323.677.135.386.135.698 0 .938-.656 1.584-.656.645-1.594.645h-.292q-.208.542-.791.959-.583.417-1.271.417Zm0-7.126Zm1.583.688Zm-.021 2.917ZM10 8.854Zm-1.583-.687Zm.021-2.917Zm-.584 10.208Zm4.313 0Z"/></svg>

<svg xmlns="http://www.w3.org/2000/svg" height="20" width="20"><path d="M10 17.667Q10 15.438 11.385 13.542Q12.771 11.646 14.75 10.812Q15.792 10.479 16.479 11.177Q17.167 11.875 16.854 12.917Q16.021 14.896 14.125 16.281Q12.229 17.667 10 17.667ZM12.167 15.458Q13.25 15.229 14.073 14.417Q14.896 13.604 15.125 12.5Q14.021 12.729 13.198 13.552Q12.375 14.375 12.167 15.458ZM10 17.667Q10 15.438 8.615 13.542Q7.229 11.646 5.25 10.812Q4.208 10.479 3.521 11.177Q2.833 11.875 3.146 12.917Q3.979 14.896 5.875 16.281Q7.771 17.667 10 17.667ZM7.854 15.458Q6.771 15.229 5.948 14.417Q5.125 13.604 4.896 12.5Q5.979 12.729 6.802 13.552Q7.625 14.375 7.854 15.458ZM12.375 8.854Q12.667 8.854 12.906 8.625Q13.146 8.396 13.146 8.083Q13.146 7.792 12.969 7.604Q12.792 7.417 12.583 7.396L12.042 7.375Q11.979 7.583 11.854 7.792Q11.729 8 11.562 8.167L11.875 8.583Q12 8.708 12.115 8.781Q12.229 8.854 12.375 8.854ZM12.062 6.042 12.583 6.021Q12.792 5.979 12.969 5.813Q13.146 5.646 13.146 5.333Q13.146 5.021 12.906 4.792Q12.667 4.562 12.375 4.562Q12.229 4.562 12.094 4.625Q11.958 4.688 11.833 4.833L11.583 5.25Q11.771 5.417 11.875 5.635Q11.979 5.854 12.062 6.042ZM9.521 4.604Q9.646 4.583 9.76 4.573Q9.875 4.562 10 4.562Q10.125 4.562 10.24 4.573Q10.354 4.583 10.479 4.604L10.771 3.812Q10.896 3.604 10.583 3.396Q10.271 3.188 10 3.188Q9.729 3.188 9.417 3.396Q9.104 3.604 9.229 3.812ZM10 7.396Q10.292 7.396 10.49 7.198Q10.688 7 10.688 6.708Q10.688 6.417 10.49 6.219Q10.292 6.021 10 6.021Q9.708 6.021 9.51 6.219Q9.312 6.417 9.312 6.708Q9.312 7 9.51 7.198Q9.708 7.396 10 7.396ZM10 10.229Q10.271 10.229 10.583 9.99Q10.896 9.75 10.771 9.521L10.479 8.812Q10.354 8.833 10.24 8.844Q10.125 8.854 10 8.854Q9.875 8.854 9.76 8.844Q9.646 8.833 9.521 8.812L9.229 9.521Q9.104 9.812 9.417 10.021Q9.729 10.229 10 10.229ZM7.917 6.042Q7.979 5.833 8.115 5.615Q8.25 5.396 8.438 5.25L8.125 4.833Q8 4.708 7.885 4.635Q7.771 4.562 7.625 4.562Q7.333 4.562 7.094 4.792Q6.854 5.021 6.854 5.333Q6.854 5.646 7.031 5.813Q7.208 5.979 7.417 6.021ZM7.646 8.854Q7.792 8.854 7.896 8.771Q8 8.688 8.146 8.562L8.417 8.167Q8.229 8 8.125 7.792Q8.021 7.583 7.938 7.375L7.417 7.396Q7.208 7.396 7.021 7.583Q6.833 7.771 6.833 8.062Q6.854 8.354 7.094 8.604Q7.333 8.854 7.646 8.854ZM10 11.688Q9.312 11.688 8.729 11.271Q8.146 10.854 7.938 10.312Q7.875 10.312 7.792 10.312Q7.708 10.312 7.646 10.312Q6.708 10.312 6.042 9.667Q5.375 9.021 5.375 8.083Q5.375 7.75 5.5 7.385Q5.625 7.021 5.854 6.708Q5.667 6.396 5.531 6.021Q5.396 5.646 5.396 5.333Q5.396 4.396 6.052 3.75Q6.708 3.104 7.646 3.104Q7.708 3.104 7.792 3.104Q7.875 3.104 7.938 3.104Q8.146 2.562 8.729 2.146Q9.312 1.729 10 1.729Q10.688 1.729 11.271 2.146Q11.854 2.562 12.062 3.104Q12.125 3.104 12.208 3.104Q12.292 3.104 12.354 3.104Q13.292 3.104 13.948 3.75Q14.604 4.396 14.604 5.333Q14.604 5.646 14.479 6.021Q14.354 6.396 14.146 6.708Q14.333 7 14.469 7.385Q14.604 7.771 14.604 8.083Q14.604 9.021 13.948 9.667Q13.292 10.312 12.354 10.312Q12.292 10.312 12.208 10.312Q12.125 10.312 12.062 10.312Q11.854 10.854 11.271 11.271Q10.688 11.688 10 11.688ZM10 4.562Q10 4.562 10 4.562Q10 4.562 10 4.562Q10 4.562 10 4.562Q10 4.562 10 4.562Q10 4.562 10 4.562Q10 4.562 10 4.562Q10 4.562 10 4.562Q10 4.562 10 4.562ZM11.583 5.25Q11.583 5.25 11.583 5.25Q11.583 5.25 11.583 5.25Q11.583 5.25 11.583 5.25Q11.583 5.25 11.583 5.25Q11.583 5.25 11.583 5.25Q11.583 5.25 11.583 5.25Q11.583 5.25 11.583 5.25Q11.583 5.25 11.583 5.25ZM11.562 8.167Q11.562 8.167 11.562 8.167Q11.562 8.167 11.562 8.167Q11.562 8.167 11.562 8.167Q11.562 8.167 11.562 8.167Q11.562 8.167 11.562 8.167Q11.562 8.167 11.562 8.167Q11.562 8.167 11.562 8.167Q11.562 8.167 11.562 8.167ZM10 8.854Q10 8.854 10 8.854Q10 8.854 10 8.854Q10 8.854 10 8.854Q10 8.854 10 8.854Q10 8.854 10 8.854Q10 8.854 10 8.854Q10 8.854 10 8.854Q10 8.854 10 8.854ZM8.417 8.167Q8.417 8.167 8.417 8.167Q8.417 8.167 8.417 8.167Q8.417 8.167 8.417 8.167Q8.417 8.167 8.417 8.167Q8.417 8.167 8.417 8.167Q8.417 8.167 8.417 8.167Q8.417 8.167 8.417 8.167Q8.417 8.167 8.417 8.167ZM8.438 5.25Q8.438 5.25 8.438 5.25Q8.438 5.25 8.438 5.25Q8.438 5.25 8.438 5.25Q8.438 5.25 8.438 5.25Q8.438 5.25 8.438 5.25Q8.438 5.25 8.438 5.25Q8.438 5.25 8.438 5.25Q8.438 5.25 8.438 5.25ZM7.854 15.458Q7.854 15.458 7.854 15.458Q7.854 15.458 7.854 15.458Q7.854 15.458 7.854 15.458Q7.854 15.458 7.854 15.458ZM12.167 15.458Q12.167 15.458 12.167 15.458Q12.167 15.458 12.167 15.458Q12.167 15.458 12.167 15.458Q12.167 15.458 12.167 15.458Z"/></svg>
